packages/dnb-ui-lib/assets/icons/account_in.svg

<svg width="16" height="16" viewBox="0 0 16 16" fill="none" xmlns="http://www.w3.org/2000/svg">
<path d="M2 10.8H6.66667M5.11111 12.3556L6.66667 10.8M6.66667 10.8L5.11111 9.24445M6.66667 6.65998C6.6932 6.63976 6.71971 6.61977 6.74619 6.6H10.476C11.9512 7.70099 13.5111 9.50521 13.5111 11.2667C13.5111 13.7042 12.3007 15 8.61111 15C7.56635 15 6.72037 14.8961 6.04437 14.6918M11.6444 1L6.04444 1.93333C6.04444 1.93333 6.97778 2.44242 6.97778 3.8H10.0111C10.0111 2.44242 11.6444 1 11.6444 1Z" stroke="black" stroke-width="1.5" stroke-linecap="round" stroke-linejoin="round"/>
</svg>

<svg width="16" height="16" viewBox="0 0 16 16" fill="none" xmlns="http://www.w3.org/2000/svg"><path d="M2 10.8h4.667M5.11 12.356L6.667 10.8m0 0L5.11 9.244M6.667 6.66l.08-.06h3.729c1.475 1.101 3.035 2.905 3.035 4.667 0 2.437-1.21 3.733-4.9 3.733-1.045 0-1.89-.104-2.567-.308M11.644 1l-5.6.933s.934.51.934 1.867h3.033c0-1.358 1.633-2.8 1.633-2.8z" stroke="#000" stroke-width="1.5" stroke-linecap="round" stroke-linejoin="round"/></svg>
